X:1
T: Captain Tom
C:
R:Jig
Q:180
K:A
M:6/8
L:1/16
cd|e4z2 f4z2|e6 e2c2A2|d2c2B2 F2G2A2|G6 E4D2|
C2E2A2 A2F2D2|D2F2B2 B2G2E2|a2e2c2 B4A2|A6 A4cd|
e4z2 f4z2|e6 e2c2A2|d2c2B2 F2G2A2|G6 E4D2|
C2E2A2 A2F2D2|D2F2B2 B2G2E2|a2e2c2 B4A2|A6 A4GA|
B4z2 e4z2|B3cB2 B2G2E2|G2B2e2 f3gfe|^d6 B4ef|
g4z2 f4z2|a4g2 f3e^dc|B4e2 e4^d2|e6 e4e2|
a2e2c2 A2c2e2|f2d2B2 G2B2e2|c2B2A2 F2G2A2|G6 E4D2|
C2E2A2 A2F2D2|D2F2B2 B2G2E2|a2e2c2 B4A2|A6 A4||
